_includes/icons/ios-pin.svg

<svg fill="#666" height="50" viewBox="0 0 50 50" width="50" xmlns="http://www.w3.org/2000/svg"><path d="m35.9375 0c-.191406.00390625-.375.0429688-.5625.09375-.742187.207031-1.410156.699219-1.9375 1.375-.011719.011719-.019531.019531-.03125.03125l-8.34375 11.6875c-5.128906-1.1875-10.726562.164063-14.71875 4.15625-.386719.390625-.386719 1.015625 0 1.40625l7.4375 7.40625-17.5625 22.21875c-.320313.398438-.2890625.972656.070313 1.335938.363281.359375.9375.390625 1.335937.070312l22.1875-17.5625 7.4375 7.40625c.390625.386719 1.015625.386719 1.40625 0 4.050781-4.046875 5.375-9.75 4.09375-14.9375l11.71875-7.96875.03125-.03125c.683594-.507812 1.15625-1.136719 1.375-1.875s.109375-1.671875-.5-2.28125l-11.75-11.90625c-.300781-.308594-.699219-.480469-1.09375-.5625-.199219-.0429687-.402344-.06640625-.59375-.0625zm.1875 2c.035156.003906.039063.007813.0625.03125l11.78125 11.90625c.042969.042969.066406.054688 0 .28125-.066406.21875-.296875.5625-.65625.84375l-.03125.03125-12.15625 8.28125c-.011719.011719-.019531.019531-.03125.03125l-.0625.03125c-.332031.257813-.46875.691406-.34375 1.09375 1.308594 4.386719.308594 9.222656-2.84375 12.875l-19.28125-19.25c3.605469-3.109375 8.378906-4.136719 12.71875-2.90625.414063.113281.855469-.050781 1.09375-.40625l8.625-12.15625.03125-.03125c.289063-.355469.652344-.5625.875-.625.117188-.03125.183594-.035156.21875-.03125zm-16.9375 25.59375 3.21875 3.1875-15.28125 12.09375z"/></svg>

<svg xmlns="http://www.w3.org/2000/svg" viewBox="0 0 50 50" width="50" height="50" fill="#666"><path d="M 35.9375 0 C 35.746094 0.00390625 35.5625 0.0429688 35.375 0.09375 C 34.632813 0.300781 33.964844 0.792969 33.4375 1.46875 C 33.425781 1.480469 33.417969 1.488281 33.40625 1.5 L 25.0625 13.1875 C 19.933594 12 14.335938 13.351563 10.34375 17.34375 C 9.957031 17.734375 9.957031 18.359375 10.34375 18.75 L 17.78125 26.15625 L 0.21875 48.375 C -0.101563 48.773438 -0.0703125 49.347656 0.289063 49.710938 C 0.652344 50.070313 1.226563 50.101563 1.625 49.78125 L 23.8125 32.21875 L 31.25 39.625 C 31.640625 40.011719 32.265625 40.011719 32.65625 39.625 C 36.707031 35.578125 38.03125 29.875 36.75 24.6875 L 48.46875 16.71875 C 48.480469 16.707031 48.488281 16.699219 48.5 16.6875 C 49.183594 16.179688 49.65625 15.550781 49.875 14.8125 C 50.09375 14.074219 49.984375 13.140625 49.375 12.53125 L 37.625 0.625 C 37.324219 0.316406 36.925781 0.144531 36.53125 0.0625 C 36.332031 0.0195313 36.128906 -0.00390625 35.9375 0 Z M 36.125 2 C 36.160156 2.003906 36.164063 2.007813 36.1875 2.03125 L 47.96875 13.9375 C 48.011719 13.980469 48.035156 13.992188 47.96875 14.21875 C 47.902344 14.4375 47.671875 14.78125 47.3125 15.0625 L 47.28125 15.09375 L 35.125 23.375 C 35.113281 23.386719 35.105469 23.394531 35.09375 23.40625 L 35.03125 23.4375 C 34.699219 23.695313 34.5625 24.128906 34.6875 24.53125 C 35.996094 28.917969 34.996094 33.753906 31.84375 37.40625 L 12.5625 18.15625 C 16.167969 15.046875 20.941406 14.019531 25.28125 15.25 C 25.695313 15.363281 26.136719 15.199219 26.375 14.84375 L 35 2.6875 L 35.03125 2.65625 C 35.320313 2.300781 35.683594 2.09375 35.90625 2.03125 C 36.023438 2 36.089844 1.996094 36.125 2 Z M 19.1875 27.59375 L 22.40625 30.78125 L 7.125 42.875 Z"/></svg>
